dist/img/logo-k.svg

<svg width="178" height="48" viewBox="0 0 178 48" fill="none" xmlns="http://www.w3.org/2000/svg">
<path d="M52.1687 44.2046C82.6188 36.1895 114.266 37.3903 133.498 38.0572C134.247 38.0837 134.648 38.4129 134.628 38.7943C134.609 39.1346 134.209 39.462 133.357 39.4483C108.389 39.036 82.465 39.6626 61.6995 46.578C60.882 46.8497 59.6214 47.2209 58.4782 47.382C57.5709 47.5106 56.6498 47.4712 55.911 47.3855C54.9579 47.274 53.2177 47.0015 51.5448 46.5515C50.6125 46.2995 50.2574 45.8692 50.2772 45.3275C50.298 44.8037 51.0532 44.4763 52.1687 44.2046ZM86.5115 0.442311C88.9991 0.300883 90.812 1.27717 91.1982 3.15003C91.8005 6.08145 88.9637 8.64946 86.2047 9.0086C85.0693 9.15688 84.3539 9.17317 84.2061 8.66574C84.0765 8.22345 84.7582 7.73317 86.2471 7.23688C87.9864 6.65745 89.515 5.04003 89.076 3.71145C88.6984 2.56288 87.118 2.57488 85.497 3.12174C85.1566 3.23574 84.8144 3.37288 84.4817 3.52888C78.9827 6.11231 73.5563 15.8246 64.0921 19.2943C65.2975 20.73 65.9067 22.572 65.8773 25.4203C65.8574 27.3035 65.116 29.8535 65.3969 31.7649C65.6276 33.3446 67.1751 33.8135 68.6155 32.6623C69.9955 31.56 70.9598 30.2195 71.9578 28.596C73.4362 26.1935 75.5835 21.2863 76.5754 19.7357C76.8692 19.278 77.1768 19.1229 77.7385 19.0886C78.2362 19.0603 79.4303 19.0235 80.0404 19.0003C80.8051 18.9703 80.9615 19.4657 80.5545 20.0889C79.3033 22.0037 76.839 26.79 76.1736 28.2695C74.6874 31.5652 75.9058 33.582 78.5447 32.7455C79.5375 32.4317 80.8258 31.9055 82.0122 31.2557C81.4298 29.7489 81.3788 27.9455 81.7971 26.4077C82.3155 24.5049 83.3645 22.608 85.3467 20.7223C87.3738 18.7937 89.973 17.9555 92.1375 18.1595C93.5589 18.2915 94.5724 18.8923 94.8394 20.2483C95.1246 21.7029 94.747 22.674 93.8976 24.162C92.2913 26.9795 88.7313 29.1857 85.4711 31.062C86.044 31.932 86.9781 32.3957 88.1688 32.2355C90.5113 31.9209 93.6652 29.3512 96.0967 26.886C96.7223 26.2055 97.2424 25.6526 97.6935 25.1743C99.845 21.4595 103.18 15.7115 108.413 6.6926C108.839 5.95288 109.126 5.68288 109.691 5.68288H111.531C112.333 5.68288 112.867 5.97431 112.214 7.0886C111.457 8.38717 104.545 20.0366 104.545 20.0366C106.102 18.9069 108.093 17.88 110.066 17.88C111.27 17.88 112.309 18.5049 112.643 19.4477C112.967 20.3675 112.79 21.9266 112.029 23.2389C110.862 25.248 109.588 26.8157 108.843 28.5875C108.457 29.5012 108.513 30.3223 108.86 30.6857C109.384 31.2317 110.217 31.0509 111.059 30.5932C112.912 29.586 114.282 28.5146 115.947 26.9186C115.833 26.0615 115.826 25.1683 115.919 24.2872C116.949 14.4446 125.449 4.40831 131.325 4.22145C133.86 4.14345 134.429 5.96831 133.762 8.60317C132.789 12.4535 129.231 16.7177 125.732 20.406C123.669 22.5849 122.208 24.0206 119.424 26.5157C119.677 28.7186 120.708 30.3043 122.651 30.4029C124.885 30.5177 126.713 29.0426 128.134 27.5915C128.648 27.066 129.47 26.8723 129.836 27.2443C130.227 27.6395 130.221 28.2986 129.539 28.9929C127.725 30.846 125.405 32.9015 121.266 32.6169C118.791 32.4472 117.241 30.9557 116.461 28.9629C115.106 30.1672 114.317 30.8152 112.402 32.0143C111.084 32.8415 109.921 33.2657 108.594 33.2109C106.043 33.108 104.918 31.2857 105.261 28.9792C105.513 27.2786 106.747 25.212 108.36 22.8995C109.49 21.276 108.748 20.0066 106.867 20.7257C105.565 21.2229 103.141 22.8686 101.228 25.7537C99.9228 27.72 97.3047 32.5029 96.953 33.0446C96.7145 33.4089 96.3982 33.6729 95.7415 33.72C95.2551 33.7543 94.429 33.8195 93.9425 33.8375C93.3809 33.8572 93.1234 33.2589 93.4344 32.6503C93.6591 32.2132 93.7922 31.9492 94.8032 30.1843H94.8014L94.5171 30.4397C91.8601 32.7883 89.3776 34.2995 86.8372 34.4237L86.565 34.4323C84.8369 34.4495 83.5831 33.7183 82.7579 32.6169C80.399 33.9523 78.0435 34.9955 76.2998 35.0417C74.328 35.0932 72.389 34.0852 72.1021 31.4932C70.4638 34.0543 67.8223 35.8243 65.3597 35.724C62.4564 35.6083 61.0125 33.21 60.9849 28.788C60.9659 25.6577 61.9431 22.3029 61.3141 20.0426C59.3578 20.394 57.9978 20.3023 57.0162 19.9569C56.7932 20.394 56.5608 20.8355 56.3171 21.2855C52.5817 28.1829 47.2737 37.2883 37.3506 37.2077C33.0034 37.1726 30.8519 34.53 30.7491 31.8129C30.6627 29.5037 31.6857 27.9755 33.7232 27.834C34.9459 27.75 35.8886 28.6689 35.7184 30.0223C35.5922 31.02 34.8629 31.6877 33.3404 31.7537C33.2402 31.7572 33.1434 31.8395 33.1452 32.1977C33.1469 32.8886 33.5288 33.6832 34.2028 34.2257C35.9906 35.6657 39.1825 35.4 41.5665 34.242C44.9675 32.5895 47.0101 29.1746 51.5932 20.7566C54.4187 15.5649 58.4004 9.7526 61.0549 6.90088C58.4747 7.1966 56.4001 7.04745 54.6209 6.72688L54.5069 6.70631V6.7046L54.0774 6.6206C50.9693 5.98117 48.7564 4.87203 46.2187 4.89603C43.6402 4.92174 42.2404 5.9366 42.1972 7.2986C42.1497 8.80031 43.5824 9.60003 46.3068 9.66346C46.9315 9.67717 48.149 9.78774 48.1447 10.2335C48.1412 10.6389 47.0724 11.2389 46.3776 11.3666C43.076 11.9735 40.0042 10.2737 40.0586 7.0826C40.1139 3.83745 43.2168 1.84288 47.5044 1.8626C50.539 1.87717 52.9066 3.00174 55.2102 3.89317C56.1823 4.26945 57.144 4.6046 58.1386 4.7966C60.3817 5.23117 62.4996 4.97831 63.4337 4.12717C64.3677 3.27517 64.8162 2.73345 65.4772 2.51917C66.4104 2.21488 67.6599 2.34774 68.0591 3.00603C68.4047 3.57174 68.0159 4.42631 67.0809 5.13603C66.2203 5.78917 64.8343 6.16374 63.9409 6.7046C61.6182 9.74746 60.3204 12.936 58.6268 16.6183C60.5995 16.596 61.8697 17.2612 62.9005 18.1269C63.8597 17.7352 64.5267 17.3615 65.6086 16.6123C71.9543 12.2143 77.8007 2.38117 84.9043 0.682311C84.9043 0.684025 84.906 0.684883 84.9069 0.686597C85.434 0.55974 85.968 0.472311 86.5106 0.442311H86.5115ZM143.508 13.8275H143.648C144.641 13.8635 144.755 14.8715 144.495 15.6866C144.177 16.6757 143.681 16.8026 143.478 17.4729C143.288 18.0986 143.537 18.9643 143.881 19.7906C144.8 22.008 145.883 24.8752 145.124 27.7277C144.339 30.6703 141.393 32.3683 138.699 32.2689C136.553 32.1935 134.47 31.206 133.982 28.9706C133.775 28.0226 133.957 27.1749 134.311 26.5749C134.336 26.5312 134.364 26.4892 134.393 26.4489L134.447 26.3803L134.365 26.442C133.041 27.3986 132.343 27.4689 131.958 27.0137L131.914 26.9563C131.502 26.388 131.734 25.9792 133.207 24.8092C134.761 23.5757 139.736 19.4023 141.536 16.0989C142.022 14.6357 142.547 13.788 143.648 13.8275H143.508ZM141.713 19.1417C140.362 21.072 137.19 24.1689 135.146 25.836L135.024 25.9329L135.046 25.9235C135.378 25.7726 135.747 25.7237 136.074 25.7486L136.195 25.7615C137.076 25.8815 137.608 26.5646 137.583 27.4843C137.555 28.4846 137.095 29.0392 136.107 29.268C136.624 30.4706 138.312 30.87 139.507 30.3395C141.161 29.6049 141.849 27.7895 142.114 26.4112C142.707 23.3315 141.822 21.3043 141.713 19.1417ZM91.2622 20.478C90.9157 20.25 89.9747 20.2886 89.1771 20.7926C87.6192 21.7792 86.0345 23.7232 85.2058 26.3923C84.8464 27.5546 84.7617 28.632 84.9095 29.5397C87.5337 27.9455 88.9188 26.5526 90.1198 25.2403C92.2749 22.89 92.0735 21.0146 91.2622 20.478ZM2.86701 19.0466L3.02254 20.5517H2.84541C2.7253 19.9723 2.27166 19.3355 1.52855 19.3355C1.17515 19.3355 0.813961 19.5549 0.813961 19.9937C0.813961 21.0532 3.17808 21.1955 3.17808 22.644C3.17808 23.2449 2.69679 23.9237 1.68409 23.9237C1.14663 23.9237 0.800136 23.6837 0.587573 23.6837C0.438951 23.6837 0.368097 23.8037 0.368097 23.9169H0.212563L0 22.4186H0.162447C0.297243 22.7503 0.658427 23.67 1.6141 23.67C2.18007 23.67 2.46349 23.2672 2.46349 22.8849C2.46349 22.482 2.35029 22.2412 1.30994 21.6335C0.658427 21.2589 0.204786 20.9477 0.204786 20.2475C0.204786 19.4417 0.849388 19.0457 1.48621 19.0457C1.91134 19.0457 2.29326 19.2857 2.4704 19.2857C2.66914 19.2857 2.7037 19.1229 2.71839 19.0457H2.86701V19.0466ZM26.4097 19.0466L26.4736 20.6366H26.3103C26.134 19.8943 25.6242 19.3286 24.7532 19.3286C24.399 19.3286 23.9885 19.47 23.6913 19.7597C23.4148 20.0289 23.1037 20.4806 23.1037 21.4997C23.1037 22.998 23.9471 23.6126 24.8388 23.6126C25.7089 23.6126 26.2187 23.1112 26.4382 22.8986L26.5661 23.0263C26.5583 23.04 25.95 23.9237 24.6478 23.9237C23.5072 23.9237 22.2828 23.2457 22.2828 21.4852C22.2828 19.9012 23.4718 19.0457 24.6902 19.0457C25.3192 19.0457 25.7798 19.2789 25.9353 19.2789C25.9707 19.2789 26.2049 19.2789 26.261 19.0457H26.4097V19.0466ZM14.6098 19.1452L17.3213 22.5455H17.3351V20.184C17.3351 19.3706 17.1364 19.3149 16.656 19.2789V19.1452H18.3184V19.2789C17.8726 19.3286 17.6462 19.356 17.6462 20.184V23.9023H17.5252L14.4111 20.028H14.3973V22.7855C14.3973 23.514 14.545 23.6692 15.0626 23.6906V23.8252H13.3984V23.6906C13.9367 23.6563 14.0853 23.5492 14.0853 22.7855V19.668C13.795 19.3149 13.6818 19.2789 13.3984 19.2789V19.1452H14.609H14.6098ZM131.364 8.0366C131.827 6.50146 130.827 6.13031 129.328 7.10917C125.889 9.35488 120.528 16.7752 119.519 23.3675C119.495 23.5337 119.472 23.6992 119.452 23.8646C121.515 21.9429 123.541 19.7932 125.464 17.4472C127.754 14.6495 130.566 10.692 131.364 8.03746V8.0366ZM34.3099 19.146L34.3307 20.1575H34.1535C34.0473 19.5275 33.8632 19.4143 33.0778 19.4143H32.1221C31.9735 19.4143 31.8888 19.4143 31.8888 19.6543V21.2246H32.9784C33.6092 21.2246 33.68 21.0549 33.7578 20.5526H33.9202V22.1923H33.7578C33.6722 21.6266 33.566 21.528 32.9784 21.5212L31.8888 21.5066V23.2603C31.8888 23.55 31.8888 23.5577 32.943 23.5577C33.8278 23.5577 34.182 23.3452 34.4931 22.6312H34.6919L34.373 23.826H30.5512V23.6915C31.004 23.6632 31.1664 23.5997 31.1664 23.0555V19.9157C31.1664 19.3577 30.9962 19.3157 30.5512 19.2797V19.146H34.3099ZM9.52818 19.146V19.2797C9.0106 19.3012 8.83347 19.3509 8.83347 19.9157V23.0555C8.83347 23.6066 9.00369 23.6777 9.52732 23.6915V23.826H7.42502V23.6915C8.02728 23.6777 8.11196 23.5577 8.11196 23.0555V19.9157C8.11196 19.3929 8.01259 19.308 7.42502 19.2797V19.146H9.52732H9.52818ZM161.485 18.8769C162.284 18.8769 162.724 19.344 162.724 19.8815C162.724 20.5312 162.157 20.8277 161.775 21.0335C162.724 21.7123 162.872 22.122 162.872 22.5952C162.872 22.9637 162.638 23.7549 161.463 23.7549C160.585 23.7549 160.118 23.1755 160.118 22.6235C160.118 22.0089 160.408 21.7903 161.039 21.3086C160.445 20.7857 160.161 20.5457 160.161 19.9732C160.161 19.2592 160.876 18.8769 161.485 18.8769ZM169.958 18.792L170.021 18.8417L169.753 19.4709C169.731 19.5343 169.667 19.5343 169.589 19.5343H168.201L167.905 20.1352C168.471 20.2346 169.136 20.3546 169.554 20.8637C169.859 21.2315 169.936 21.4363 169.936 22.0655C169.936 23.0057 169.158 23.7549 168.039 23.7549C167.481 23.7549 167.147 23.5852 167.147 23.3315C167.147 23.2603 167.147 23.0555 167.431 23.0555C167.883 23.0555 168.075 23.4935 168.457 23.4935C168.917 23.4935 169.44 23.0975 169.44 22.2352C169.44 21.1037 168.188 20.7712 167.424 20.7437C167.395 20.7437 167.374 20.7223 167.374 20.6872C167.374 20.6803 167.374 20.6657 167.38 20.6512L168.152 18.9763H169.631C169.816 18.9763 169.88 18.8983 169.958 18.792ZM176.179 18.8777L176.236 18.8915V23.1326C176.236 23.472 176.377 23.55 176.91 23.55V23.6563H174.955V23.55C175.365 23.5363 175.627 23.5217 175.627 22.9989V19.7966C175.627 19.6475 175.627 19.464 175.387 19.464C175.302 19.464 175.302 19.464 174.906 19.6192V19.5206L176.179 18.8777ZM154.583 18.8777L154.64 18.8915V23.1326C154.64 23.472 154.781 23.55 155.312 23.55V23.6563H153.359V23.55C153.769 23.5363 154.03 23.5217 154.03 22.9989V19.7966C154.03 19.6475 154.03 19.464 153.79 19.464C153.706 19.464 153.706 19.464 153.309 19.6192V19.5206L154.583 18.8777ZM161.223 21.45C160.996 21.6343 160.656 21.9103 160.656 22.5532C160.656 23.0975 160.982 23.5569 161.555 23.5569C162.002 23.5569 162.334 23.2603 162.334 22.7657C162.334 22.2429 162.037 22.0303 161.223 21.45ZM161.443 19.0749C160.911 19.0749 160.685 19.4495 160.685 19.7889C160.685 20.34 161.315 20.7437 161.57 20.9057C161.838 20.7292 162.235 20.4686 162.235 19.8455C162.235 19.4572 161.988 19.074 161.443 19.074V19.0749ZM58.543 17.8543C58.1922 17.85 57.7869 17.9186 57.7256 18.264C57.6435 18.7355 58.0384 18.9943 59.0053 18.9943C59.5453 18.9943 60.1052 18.9815 60.7637 18.8546C60.2781 18.1406 59.6767 17.8697 58.543 17.8543ZM81.982 11.7129C83.2003 11.6837 83.8942 12.7072 83.6237 13.8395C83.4207 14.6932 82.681 15.4303 81.4696 15.3909C80.1907 15.3497 79.5651 14.286 79.8365 13.2857C80.1216 12.24 80.9615 11.7377 81.982 11.7129ZM136.557 10.0217C136.972 9.12088 138.08 8.73946 138.884 8.96745C139.919 9.26146 140.173 10.4803 139.636 11.6486C139.025 12.9772 137.905 14.0357 136.642 14.6957C136.294 14.8775 135.855 15.0343 135.576 14.6152C135.367 14.3015 135.556 13.8995 135.988 13.5866C136.314 13.35 136.945 12.87 137.186 12.5683C136.262 12.2297 136.073 11.0726 136.557 10.0226V10.0217Z" fill="white"/>
</svg>

<svg width="178" height="48" fill="none" xmlns="http://www.w3.org/2000/svg"><path d="M52.169 44.205c30.45-8.015 62.097-6.815 81.329-6.148.749.027 1.15.356 1.13.737-.019.34-.419.668-1.271.654-24.968-.412-50.892.215-71.657 7.13-.818.272-2.079.643-3.222.804-.907.129-1.828.09-2.567.004a32.834 32.834 0 01-4.366-.835c-.933-.252-1.288-.682-1.268-1.224.021-.523.776-.85 1.892-1.122zM86.512.442c2.487-.141 4.3.835 4.686 2.708.603 2.931-2.234 5.5-4.993 5.859-1.136.148-1.851.164-1.999-.343-.13-.443.552-.933 2.041-1.43 1.74-.579 3.268-2.196 2.829-3.525-.378-1.148-1.958-1.136-3.579-.59a9.73 9.73 0 00-1.015.408c-5.5 2.583-10.926 12.296-20.39 15.765 1.206 1.436 1.815 3.278 1.785 6.126-.02 1.883-.761 4.433-.48 6.345.23 1.58 1.778 2.048 3.218.897 1.38-1.102 2.345-2.442 3.343-4.066 1.478-2.402 3.626-7.31 4.617-8.86.294-.458.602-.613 1.163-.647.498-.029 1.692-.066 2.302-.089.765-.03.921.466.514 1.089-1.25 1.915-3.715 6.701-4.38 8.18-1.487 3.296-.268 5.313 2.37 4.477a20.39 20.39 0 003.468-1.49c-.582-1.507-.633-3.31-.215-4.848.519-1.903 1.568-3.8 3.55-5.686 2.027-1.928 4.626-2.767 6.79-2.563 1.422.133 2.435.733 2.702 2.09.286 1.454-.092 2.425-.941 3.913-1.607 2.818-5.167 5.024-8.427 6.9.573.87 1.507 1.334 2.698 1.174 2.342-.315 5.496-2.885 7.928-5.35a175.53 175.53 0 011.597-1.712c2.151-3.715 5.486-9.463 10.719-18.481.426-.74.713-1.01 1.278-1.01h1.84c.802 0 1.336.291.683 1.406a7190.609 7190.609 0 01-7.669 12.948c1.557-1.13 3.548-2.157 5.521-2.157 1.204 0 2.243.625 2.577 1.568.324.92.147 2.479-.614 3.79-1.167 2.01-2.441 3.578-3.186 5.35-.386.913-.33 1.734.017 2.098.524.546 1.357.365 2.199-.093 1.853-1.007 3.223-2.078 4.888-3.674a11.177 11.177 0 01-.028-2.632c1.03-9.842 9.53-19.879 15.406-20.066 2.535-.078 3.104 1.747 2.437 4.382-.973 3.85-4.531 8.115-8.03 11.803-2.063 2.179-3.524 3.615-6.308 6.11.253 2.203 1.284 3.788 3.227 3.887 2.234.115 4.062-1.36 5.483-2.811.514-.526 1.336-.72 1.702-.348.391.396.385 1.055-.297 1.749-1.814 1.853-4.134 3.909-8.273 3.624-2.475-.17-4.025-1.661-4.805-3.654-1.355 1.204-2.144 1.852-4.059 3.051-1.318.828-2.481 1.252-3.808 1.197-2.551-.103-3.676-1.925-3.333-4.232.252-1.7 1.486-3.767 3.099-6.08 1.13-1.623.388-2.892-1.493-2.173-1.302.497-3.726 2.143-5.639 5.028-1.305 1.966-3.923 6.749-4.275 7.29-.239.365-.555.629-1.212.676-.486.034-1.312.1-1.799.117-.561.02-.819-.578-.508-1.187.225-.437.358-.7 1.37-2.466H94.8l-.284.256c-2.657 2.348-5.14 3.86-7.68 3.984l-.272.008c-1.728.017-2.982-.714-3.807-1.815-2.359 1.335-4.715 2.379-6.458 2.425-1.972.051-3.911-.957-4.198-3.549-1.638 2.561-4.28 4.331-6.742 4.231-2.904-.116-4.347-2.514-4.375-6.936-.02-3.13.958-6.485.33-8.745-1.957.351-3.317.26-4.299-.086a61.02 61.02 0 01-.699 1.328c-3.735 6.898-9.043 16.003-18.966 15.923-4.348-.035-6.5-2.678-6.602-5.395-.086-2.31.937-3.837 2.974-3.979 1.223-.084 2.166.835 1.995 2.188-.126.998-.855 1.666-2.378 1.732-.1.003-.197.085-.195.444.002.69.384 1.485 1.058 2.028 1.788 1.44 4.98 1.174 7.363.016 3.401-1.652 5.444-5.067 10.027-13.485C54.42 15.565 58.4 9.753 61.055 6.9c-2.58.296-4.655.146-6.434-.174l-.114-.02v-.002l-.43-.084c-3.108-.64-5.32-1.749-7.858-1.725-2.579.026-3.979 1.04-4.022 2.403-.047 1.501 1.385 2.301 4.11 2.364.624.014 1.842.125 1.838.57-.004.406-1.073 1.006-1.767 1.134-3.302.606-6.374-1.093-6.32-4.284.056-3.246 3.159-5.24 7.446-5.22 3.035.014 5.403 1.139 7.706 2.03.972.376 1.934.712 2.929.904 2.243.434 4.36.181 5.295-.67.934-.852 1.382-1.394 2.043-1.608.933-.304 2.183-.171 2.582.487.346.566-.043 1.42-.978 2.13-.86.653-2.247 1.028-3.14 1.569-2.323 3.042-3.62 6.231-5.314 9.913 1.972-.022 3.243.643 4.273 1.509.96-.392 1.627-.765 2.709-1.515C71.954 12.214 77.8 2.382 84.904.682c0 .002.002.003.003.005A8.961 8.961 0 0186.51.442zm56.996 13.386h.14c.993.036 1.107 1.043.847 1.859-.318.989-.814 1.116-1.017 1.786-.19.626.059 1.491.403 2.318.919 2.217 2.002 5.084 1.243 7.937-.785 2.942-3.731 4.64-6.425 4.54-2.146-.075-4.229-1.062-4.717-3.297-.207-.948-.025-1.796.329-2.396.025-.044.053-.086.082-.126l.054-.069-.082.062c-1.324.957-2.022 1.027-2.407.572l-.044-.058c-.412-.568-.18-.977 1.293-2.147 1.554-1.233 6.529-5.407 8.329-8.71.486-1.463 1.011-2.311 2.112-2.271h-.14zm-1.795 5.314c-1.351 1.93-4.523 5.027-6.567 6.694l-.122.097.022-.01c.332-.15.701-.2 1.028-.174l.121.013c.881.12 1.413.803 1.388 1.722-.028 1-.488 1.555-1.476 1.784.517 1.203 2.205 1.602 3.4 1.072 1.654-.735 2.342-2.55 2.607-3.929.593-3.08-.292-5.107-.401-7.27zm-50.45 1.336c-.347-.228-1.288-.19-2.086.315-1.558.986-3.143 2.93-3.971 5.6-.36 1.162-.444 2.239-.297 3.147 2.625-1.595 4.01-2.987 5.21-4.3 2.156-2.35 1.954-4.225 1.143-4.762zM2.866 19.047l.156 1.505h-.178c-.12-.58-.573-1.216-1.316-1.216-.354 0-.715.219-.715.658 0 1.06 2.364 1.201 2.364 2.65 0 .6-.481 1.28-1.494 1.28-.537 0-.884-.24-1.096-.24-.149 0-.22.12-.22.233H.213L0 22.419h.162c.135.331.496 1.251 1.452 1.251.566 0 .85-.403.85-.785 0-.403-.114-.644-1.154-1.252-.652-.374-1.105-.685-1.105-1.386 0-.805.644-1.201 1.281-1.201.425 0 .807.24.984.24.2 0 .234-.163.248-.24h.149zm23.543 0l.064 1.59h-.164c-.176-.743-.686-1.308-1.557-1.308-.354 0-.765.141-1.062.43-.276.27-.587.722-.587 1.74 0 1.499.843 2.114 1.735 2.114.87 0 1.38-.502 1.6-.714l.127.127c-.008.014-.616.898-1.918.898-1.14 0-2.365-.678-2.365-2.439 0-1.584 1.189-2.44 2.407-2.44.63 0 1.09.234 1.245.234.036 0 .27 0 .326-.233h.149zm-11.8.098l2.711 3.4h.014v-2.361c0-.813-.199-.87-.679-.905v-.134h1.662v.134c-.445.05-.672.077-.672.905v3.718h-.12l-3.115-3.874h-.014v2.758c0 .728.148.883.666.905v.134h-1.665v-.134c.539-.035.687-.142.687-.905v-3.118c-.29-.353-.403-.39-.687-.39v-.133h1.211zM131.364 8.037c.463-1.536-.537-1.907-2.036-.928-3.439 2.246-8.8 9.666-9.809 16.259-.024.166-.047.331-.067.497a65.763 65.763 0 006.012-6.418c2.29-2.797 5.102-6.755 5.9-9.41zM34.31 19.146l.02 1.011h-.176c-.107-.63-.29-.743-1.076-.743h-.956c-.148 0-.233 0-.233.24v1.57h1.09c.63 0 .701-.17.779-.671h.162v1.64h-.162c-.086-.566-.192-.665-.78-.672l-1.09-.014v1.753c0 .29 0 .298 1.055.298.885 0 1.239-.213 1.55-.927h.199l-.319 1.195h-3.822v-.134c.453-.029.615-.092.615-.637v-3.14c0-.557-.17-.6-.615-.635v-.134h3.759zm-24.782 0v.134c-.517.021-.695.07-.695.636v3.14c0 .55.17.622.694.636v.134H7.425v-.134c.602-.014.687-.134.687-.637v-3.14c0-.522-.1-.607-.687-.635v-.134h2.103zm151.957-.27c.799 0 1.239.468 1.239 1.005 0 .65-.567.947-.949 1.152.949.68 1.097 1.089 1.097 1.562 0 .369-.234 1.16-1.409 1.16-.878 0-1.345-.58-1.345-1.131 0-.615.29-.834.921-1.315-.594-.523-.878-.763-.878-1.336 0-.714.715-1.096 1.324-1.096zm8.473-.084l.063.05-.268.629c-.022.063-.086.063-.164.063h-1.388l-.296.601c.566.1 1.231.22 1.649.729.305.367.382.572.382 1.201 0 .94-.778 1.69-1.897 1.69-.558 0-.892-.17-.892-.424 0-.07 0-.276.284-.276.452 0 .644.439 1.026.439.46 0 .983-.396.983-1.259 0-1.131-1.252-1.464-2.016-1.491-.029 0-.05-.022-.05-.057 0-.007 0-.021.006-.036l.772-1.675h1.479c.185 0 .249-.078.327-.184zm6.221.086l.057.014v4.24c0 .34.141.418.674.418v.106h-1.955v-.106c.41-.014.672-.028.672-.551v-3.202c0-.15 0-.333-.24-.333-.085 0-.085 0-.481.155v-.098l1.273-.643zm-21.596 0l.057.014v4.24c0 .34.141.418.672.418v.106h-1.953v-.106c.41-.014.671-.028.671-.551v-3.202c0-.15 0-.333-.24-.333-.084 0-.084 0-.481.155v-.098l1.274-.643zm6.64 2.572c-.227.184-.567.46-.567 1.103 0 .544.326 1.004.899 1.004.447 0 .779-.297.779-.791 0-.523-.297-.736-1.111-1.316zm.22-2.375c-.532 0-.758.375-.758.714 0 .551.63.955.885 1.117.268-.177.665-.437.665-1.06 0-.389-.247-.772-.792-.772zm-102.9-1.22c-.35-.005-.756.064-.817.409-.082.471.312.73 1.28.73.54 0 1.1-.012 1.758-.14-.486-.713-1.087-.984-2.221-1zm23.439-6.142c1.218-.03 1.912.994 1.642 2.127-.203.853-.943 1.59-2.154 1.55-1.28-.04-1.905-1.104-1.633-2.104.285-1.046 1.124-1.548 2.145-1.573zm54.575-1.691c.415-.901 1.523-1.283 2.327-1.055 1.035.294 1.289 1.513.752 2.682-.611 1.328-1.731 2.387-2.994 3.047-.348.181-.787.338-1.066-.08-.209-.314-.02-.716.412-1.03.326-.236.957-.716 1.198-1.018-.924-.338-1.113-1.495-.629-2.545v-.001z" fill="#fff"/></svg>
